X: 02079
T: M'GUNKY'S JIG
C: Bob McQuillen Apr'75
B: Bob's Note Book 1&2 #79
R: jig
Z: 2019 John Chambers <jc:trillian.mit.edu>
M: 6/8
L: 1/8
K: A
e \
| a2e dcB | cAA cAA | ecA Ace | cBA B2e |\
| a2e dcB | cAA cAA | def edc | BAG A2 :|
|: e \
| aee fee | aec fee | aec Ace | dcd B2e |\
| aee fee | aec fee | fga ecA | BAG A2 :|
%%begintext align
%% For my friend M'Gunky.
%%endtext

%%sep 1 1 500

%%sep 1 1 500

